images/LinkedIn.svg

<?xml version="1.0" encoding="UTF-8" standalone="no"?>
<!-- Generator: Gravit.io -->

<svg
   xmlns:dc="http://purl.org/dc/elements/1.1/"
   xmlns:cc="http://creativecommons.org/ns#"
   xmlns:rdf="http://www.w3.org/1999/02/22-rdf-syntax-ns#"
   xmlns:svg="http://www.w3.org/2000/svg"
   xmlns="http://www.w3.org/2000/svg"
   xmlns:sodipodi="http://sodipodi.sourceforge.net/DTD/sodipodi-0.dtd"
   xmlns:inkscape="http://www.inkscape.org/namespaces/inkscape"
   style="isolation:isolate"
   viewBox="0 0 50 50"
   width="50"
   height="50"
   version="1.1"
   id="svg14"
   sodipodi:docname="LinkedIn.svg"
   inkscape:version="0.92.5 (2060ec1f9f, 2020-04-08)">
  <metadata
     id="metadata18">
    <rdf:RDF>
      <cc:Work
         rdf:about="">
        <dc:format>image/svg+xml</dc:format>
        <dc:type
           rdf:resource="http://purl.org/dc/dcmitype/StillImage" />
        <dc:title></dc:title>
      </cc:Work>
    </rdf:RDF>
  </metadata>
  <sodipodi:namedview
     pagecolor="#ffffff"
     bordercolor="#666666"
     borderopacity="1"
     objecttolerance="10"
     gridtolerance="10"
     guidetolerance="10"
     inkscape:pageopacity="0"
     inkscape:pageshadow="2"
     inkscape:window-width="828"
     inkscape:window-height="1052"
     id="namedview16"
     showgrid="false"
     inkscape:zoom="4.72"
     inkscape:cx="18.961864"
     inkscape:cy="8.0508475"
     inkscape:window-x="2"
     inkscape:window-y="22"
     inkscape:window-maximized="0"
     inkscape:current-layer="svg14" />
  <defs
     id="defs5">
    <clipPath
       id="_clipPath_rm3uw59WpDVTFI5DFHdfzA7yCMIpCUMz">
      <rect
         width="50"
         height="50"
         id="rect2" />
    </clipPath>
  </defs>
  <g
     clip-path="url(#_clipPath_rm3uw59WpDVTFI5DFHdfzA7yCMIpCUMz)"
     id="g12"
     style="fill:#000000;fill-opacity:1">
    <g
       style="isolation:isolate;fill:#000000;fill-opacity:1"
       id="in">
      <path
         d="m 20.722,20.09 h 5.817 v 2.669 h 0.084 c 0.809,-1.535 2.789,-3.154 5.74,-3.154 6.147,0 7.282,4.042 7.282,9.303 v 10.709 h -6.068 v -9.498 c 0,-2.264 -0.041,-5.176 -3.155,-5.176 -3.158,0 -3.64,2.469 -3.64,5.015 v 9.659 h -6.06 z"
         id="path7"
         inkscape:connector-curvature="0"
         style="fill:#000000;fill-opacity:1" />
      <path
         d="m 10.837,20.09 h 6.077 v 19.527 h -6.077 z m 3.042,-9.707 c 1.941,0 3.517,1.577 3.517,3.519 0,1.941 -1.578,3.521 -3.517,3.521 -1.948,0 -3.524,-1.578 -3.524,-3.519 0,-1.941 1.574,-3.521 3.524,-3.521 z"
         id="path9"
         inkscape:connector-curvature="0"
         style="fill:#000000;fill-opacity:1" />
    </g>
  </g>
</svg>

<?xml version="1.0" standalone="no"?><!-- Generator: Gravit.io --><svg xmlns="http://www.w3.org/2000/svg" xmlns:xlink="http://www.w3.org/1999/xlink" style="isolation:isolate" viewBox="0 0 50 50" width="50" height="50"><defs><clipPath id="_clipPath_rm3uw59WpDVTFI5DFHdfzA7yCMIpCUMz"><rect width="50" height="50"/></clipPath></defs><g clip-path="url(#_clipPath_rm3uw59WpDVTFI5DFHdfzA7yCMIpCUMz)"><g style="isolation:isolate" id="in"><path d=" M 20.722 20.09 L 26.539 20.09 L 26.539 22.759 L 26.623 22.759 C 27.432 21.224 29.412 19.605 32.363 19.605 C 38.51 19.605 39.645 23.647 39.645 28.908 L 39.645 39.617 L 33.577 39.617 L 33.577 30.119 C 33.577 27.855 33.536 24.943 30.422 24.943 C 27.264 24.943 26.782 27.412 26.782 29.958 L 26.782 39.617 L 20.722 39.617 L 20.722 20.09 Z " fill="rgb(255,255,255)"/><path d=" M 10.837 20.09 L 16.914 20.09 L 16.914 39.617 L 10.837 39.617 L 10.837 20.09 Z  M 13.879 10.383 C 15.82 10.383 17.396 11.96 17.396 13.902 C 17.396 15.843 15.818 17.423 13.879 17.423 C 11.931 17.423 10.355 15.845 10.355 13.904 C 10.355 11.963 11.929 10.383 13.879 10.383 Z " fill="rgb(255,255,255)"/></g></g></svg>
